X:1
T:Cara  selve beate
T:Bartolomeo Mutiis Conte di Cesana
T:Source : Musiche a uno, doi e tre voci---Venetia---Herede di Angelo Gardano---1613. Editor : André Vierendeels (05/11/16).
T:Cara  selve beate
T:©
T:©
T:©
T:©
C:Bartolomeo Mutiis
C:Conte di Cesana
Z:©
%%score [ 1 2 ] 3
L:1/8
Q:1/4=98
M:4/4
K:F
V:1 treble nm="Soprano 1" snm="S 1"
V:2 treble nm="Soprano 2" snm="S 2"
V:3 bass nm="MusicXML Part"
V:1
 z4 A2 A2 | A4 A2 =B2 | c4 c4 | z2 d2 d3 e | f6 e2 | d3 c =B3 A | G4 G4 | z2 GA B4- | B2 AB c4- | %9
w: Ca- ra,|sel- ve, be-|a- te,|e voi so-|ling' e|ta- ci turn' hor-|ro- ri|di ri- pos'|_ è di pac'|
 c2 B2 B4- | B4 AGAF | G8 | F8 :: z4 A4 | A3 G A3 B | c8 | c4 z Bcd | _e6 f2 | d2 _e2 d4 | c8 || %20
w: _ al- ber-|* ghi _ _ _|ve-|ri,|o|quan- ro vo- lon|tie-|ri à ri- ve-|derv' i|tor- * *|no.|
 z4 A4 | A2 A2 A4 | A6 A2 | A2 =B2 c3 d | =B4 B4 | z2 G2 G4- | G2 G2 A2 B2 | c4 c4 | _e6 dc | %29
w: E|se le stel-|le m'ha-|ves- ser dat' in|sor- te,|di vi-|* ver a me|stes- sa,|e di far|
 =B4 B4 | z2 G2 A2 =B2 | c/B/A/G/ A/B/c/d/ _e3 f | d2 _e2 d4 | c8 | z4 =B4 | =B6 B2 | =B4 c4 | %37
w: vi- ta|con- form' al-|le- * * * * * * * * mie|vo- * *|glie,|io|gia co'|cam- pi'e-|
 d4 d4 | z2 _ed c2 BA | G6 ^F2 | G3 A B3 c/B/ | c2 d/c/d/B/ c4 | B8 | z2 GA B4 | A>G A/G/A/F/ G4 | %45
w: li- si|for- tu- na- to giar-|din de|se- mi de- * *||i,|la vo- str'om-|bra _ ge- * * * til,|
 z2 AB c4 | B>A B/A/B/G/ A4 | z2 Bc d4 | c>B c/B/c/A/ B4- | B2 A2 A3 B | G2 A/G/A/F/ G4 | F8 :| %52
w: la vo- str'om-|gra _ gen- * * * til,|la vo- str'om-|bra _ gen- * * * til|non can- ge re-||i|
V:2
 z4 F2 F2 | F4 ^F2 G2 | A4 A4 | z2 B2 B3 c | d6 c2 | B3 A G3 F | E4 E4 | z2 EF G4- | G2 FG A4- | %9
w: Ca- ra,|sel- ve, be-|a- te,|e voi so-|ling' e|ta- ci rurn' hor-|ro- ri,|di ri- pos'|_ è di pac|
 A2 G2 G4- | G2 F2 F4- | F4 E4 | F8 :: z4 ^F4 | ^F3 E F3 G | c8 | A4 z GAB | c6 d2 | =B2 c4 B2 | %19
w: _ al- ber-|* ghi ve-||ri,|o|quan- to vo- lon|tie-|ri à ri- ve-|derv' i|tor- * *|
 c8 || z4 F4 | ^F2 F2 F4 | ^F6 F2 | ^F2 G2 A3 B | G4 G4 | z2 E2 E4- | E2 E2 ^F2 G2 | A4 A4 | %28
w: no.|E|se le stel-|le m'ha-|ves- ser dat' in|sor- te|di vi-|* ver a me|stes- sa,|
 c6 BA | G4 G4 | z2 E2 F2 G2 | A/G/F/E/ F/G/A/B/ c3 d | =B2 c4 B2 | c8 | z4 G4 | G6 G2 | G4 A4 | %37
w: e di far|vi- ta|con- form' al-|le- * * * * * * * * mie|vo- * *|glie,|io|gia co'|cam- pi'e-|
 B4 B4 | z2 cB A2 GF | E6 D2 | E3 F G4- | G4 ^F4 | G8 | z2 EF G4 | F>E F/E/F/D/ E4 | z2 FG A4 | %46
w: li- si|for- tu- na- to giar-|din de|se- mi de-||i,|la vo- str'om-|bra _ gen- * * * til,|la vo- str'om-|
 G>F G/F/G/E/ F4 | z2 GA B4 | A>G A/G/A/F/ G3 G | G4 F4 | F4 E4 | F8 :| %52
w: bra _ gen- * * * til,|la vo- str'om-|bra _ gen- * * * til non|can- ge|re- *|i.|
V:3
"^BC" F,,8 | F,4 D,2 G,2 | F,4 F,2 A,2 | G,4 G,2 F,E, | D,4 D,2 E,F, | %5
"^-natural""^-natural" G,4 G,,4 | C,8 | C,4 G,,4 | D,4 F,,4 | G,,4 G,,2 A,,B,, | C,8 | C,8 | %12
 F,,8 ::"^#" D,8 | D,4 D,2 C,B,, | A,,4 F,,4 |"^-natural" F,,4 G,,4 | C,8 |"^-natural" G,,8 | %19
 C,8 ||"^#" D,8 |"^#" D,8 |"^#" D,8 | D,2 G,,2 F,,4 |"^-natural" G,,8 | C,8 | C,4 A,,2 G,,2 | %27
 F,,4 F,4 | C,2 D,2 _E,2 F,2 |"^-natural""^-natural" G,4 G,,4 | C,2 C,B,, A,,2 G,,2 | F,,4 C,4 | %32
"^-natural" G,,8 | C,8 |"^-natural" G,,8 |"^-natural" G,,8 |"^-natural" G,,4 F,,4 | B,,4 G,,4 | %38
 C,8 | C,6 D,2 | C,4 G,,4 | D,8 | G,,8 | C,2 C,B,,/A,,/ G,,A,,B,,C, | D,4 C,4 | %45
 F,E, D,2 A,,G,, F,,2 | B,,2 G,,2 F,,4 | B,,2 G,,2 G,,A,,B,,G,, |"^-natural" A,,4 G,,4 | A,,8 | %50
 A,,8 | F,,8 :| %52

